app/assets/icons/princeton.svg

<?xml version="1.0" encoding="UTF-8" standalone="no"?>
<svg width="129px" height="129px" viewBox="0 0 129 129" version="1.1" xmlns="http://www.w3.org/2000/svg" xmlns:xlink="http://www.w3.org/1999/xlink" xmlns:sketch="http://www.bohemiancoding.com/sketch/ns">
    <!-- Generator: Sketch 3.1.1 (8761) - http://www.bohemiancoding.com/sketch -->
    <title>princeton_shield</title>
    <desc>Created with Sketch.</desc>
    <defs></defs>
    <g id="Page-1" stroke="none" stroke-width="1" fill="none" fill-rule="evenodd" sketch:type="MSPage">
        <g id="princeton_shield" sketch:type="MSLayerGroup">
            <path d="M59.5218074,126.378638 C49.634473,121.39091 38.3576371,113.419229 30.5831649,105.921675 C13.5601956,89.5050697 3.63174093,70.2576913 0.525517824,47.6517035 C-0.165214208,42.6247968 0.117678592,20.6070627 0.910178816,17.7133029 L1.26368512,16.4224992 L5.18453862,17.7942597 C12.9879491,20.5243817 23.2099937,21.4462528 30.814977,20.1057295 C41.7816576,18.1726436 52.5396326,12.1242338 60.4875674,3.42303096 C62.20992,1.53744109 63.8206618,-0.00531240576 64.0669952,-0.00531240576 C64.3133286,-0.00531240576 65.1219558,0.715551391 65.8639462,1.59660575 C68.4494643,4.6666845 73.9720704,9.6227176 77.4323814,11.9782138 C87.4674278,18.8092455 98.9577984,21.759976 110.611031,20.4984962 C115.519391,19.9671593 123.888824,17.8859885 125.349606,16.8335526 C125.883602,16.4488333 126.337797,16.3815676 126.570435,16.652755 C128.290514,18.6579045 128.7166,40.7568563 127.216276,50.1494077 C122.832768,77.5916855 107.7391,100.51598 82.6111181,117.895798 C75.3774285,122.898997 65.8697421,128.148071 64.0411136,128.148071 C63.4846822,128.148071 61.4509926,127.351826 59.5218074,126.378638 L59.5218074,126.378638 Z M67.9243725,125.511001 C76.2639974,121.270299 85.7492326,114.847653 93.0216653,108.517102 L96.6800998,105.332484 L80.3507354,93.5678119 L64.021376,81.8031401 L47.7560576,93.5158594 L31.4907315,105.228575 L34.2656993,107.818834 C38.916224,112.159801 50.9194752,120.572879 57.3905869,124.027072 C60.7564595,125.823727 63.7147034,127.293713 63.9644518,127.293713 C64.2142003,127.293713 65.9961651,126.491492 67.9243725,125.511001 L67.9243725,125.511001 Z M40.7436544,70.8014626 L64.0186675,54.036753 L87.425705,70.8965625 C102.078218,81.4505904 111.034742,87.600972 111.37282,87.3408848 C112.29034,86.6350294 115.92469,80.3198893 118.164378,75.5396906 C121.376625,68.6837376 123.408338,62.5167714 125.425802,53.4987288 L125.736392,52.1103972 L64.0055808,52.1103972 C5.50043392,52.1103972 2.28973568,52.1494575 2.56133786,52.8579578 C2.71895501,53.2691182 3.02087936,54.566673 3.23228006,55.7414105 C3.89046016,59.3988685 6.96649574,68.8908763 8.92461158,73.3067693 C11.7902387,79.7692533 16.2088878,87.5661648 17.0056663,87.5661648 C17.2603069,87.5661648 27.942401,80.0220514 40.7436544,70.8014626 L40.7436544,70.8014626 Z" id="path3385" fill="#000000" sketch:type="MSShapeGroup"></path>
            <path d="M15.595883,85.6276731 C10.3755177,77.3745503 6.15335834,67.1268002 3.53809869,56.361801 L2.66183322,52.7548606 L3.32254618,52.5795597 C3.68593766,52.4831502 31.3457224,52.3688576 64.788736,52.3255811 L125.594214,52.2468961 L125.419832,52.878519 C125.323909,53.225908 124.877588,55.035651 124.428006,56.9001646 C122.282588,65.7976106 119.617254,72.7634886 115.343759,80.6421173 C113.232502,84.534376 111.576499,87.0713692 111.14709,87.0713692 C110.602588,87.0713692 105.090232,83.2501745 84.8627405,68.8508127 C73.4468762,60.7241997 63.9979162,54.0751456 63.8650624,54.0751456 C63.7321933,54.0751456 53.2210432,61.5501464 40.5069363,70.6862589 C27.7928366,79.8223714 17.2242458,87.2973722 17.0211973,87.2973722 C16.8181489,87.2973722 16.1767557,86.5460048 15.5958799,85.6276731 L15.595883,85.6276731 L15.595883,85.6276731 Z" id="path3388" stroke="#000000" stroke-width="0.61267608" sketch:type="MSShapeGroup"></path>
            <path d="M60.1182208,125.273781 C54.0917914,122.165756 47.7034752,118.05229 40.6230784,112.720765 C36.4304486,109.563714 31.8921897,105.69392 31.8778665,105.26367 C31.8737009,105.138923 39.1053005,99.8250568 47.9480627,93.4550907 L64.0258099,81.8733335 L80.2854298,93.5893837 L96.5450496,105.305434 L94.7273318,106.866975 C86.888617,113.600966 78.500992,119.567843 71.4296013,123.440765 C67.689129,125.489389 64.4470886,127.073641 63.995264,127.073641 C63.7823642,127.073641 62.0376883,126.263704 60.118231,125.273781 L60.1182208,125.273781 L60.1182208,125.273781 Z" id="path3899" stroke="#000000" stroke-width="0.61267608" sketch:type="MSShapeGroup"></path>
        </g>
    </g>
</svg>

<svg viewBox="0 0 129 129" version="1.1" xmlns="http://www.w3.org/2000/svg"><g stroke="none" stroke-width="1" fill="none" fill-rule="evenodd"><g><path d="M59.522 126.379c-9.888-4.988-21.164-12.96-28.939-20.457C13.56 89.505 3.632 70.258.526 47.652-.165 42.625.118 20.607.91 17.713l.354-1.29 3.92 1.371c7.804 2.73 18.026 3.652 25.631 2.312 10.967-1.933 21.725-7.982 29.673-16.683C62.21 1.537 63.82-.005 64.067-.005s1.055.72 1.797 1.602c2.585 3.07 8.108 8.026 11.568 10.381 10.035 6.831 21.526 9.782 33.179 8.52 4.908-.53 13.278-2.612 14.739-3.664.534-.385.988-.452 1.22-.181 1.72 2.005 2.147 24.104.646 33.496-4.383 27.443-19.477 50.367-44.605 67.747-7.234 5.003-16.741 10.252-18.57 10.252-.556 0-2.59-.796-4.52-1.77zm8.402-.868c8.34-4.24 17.825-10.663 25.098-16.994l3.658-3.185-16.33-11.764-16.329-11.765-16.265 11.713-16.265 11.713 2.775 2.59c4.65 4.34 16.653 12.754 23.125 16.208 3.365 1.797 6.324 3.267 6.573 3.267.25 0 2.032-.803 3.96-1.783zm-27.18-54.71l23.275-16.764 23.407 16.86C102.078 81.45 111.035 87.6 111.373 87.34c.917-.706 4.552-7.021 6.791-11.801 3.213-6.856 5.244-13.023 7.262-22.041l.31-1.389h-61.73c-58.506 0-61.716.04-61.445.748.158.411.46 1.709.671 2.883.658 3.658 3.734 13.15 5.693 17.566 2.865 6.462 7.284 14.26 8.08 14.26.255 0 10.937-7.545 23.739-16.766z" fill="#000000"/><path d="M15.596 85.628c-5.22-8.253-9.443-18.501-12.058-29.266l-.876-3.607.66-.175c.364-.097 28.024-.211 61.467-.254l60.805-.08-.174.633c-.096.347-.542 2.157-.992 4.021-2.145 8.898-4.81 15.863-9.084 23.742-2.111 3.892-3.768 6.43-4.197 6.43-.544 0-6.057-3.822-26.284-18.221-11.416-8.127-20.865-14.776-20.998-14.776-.133 0-10.644 7.475-23.358 16.611-12.714 9.136-23.283 16.611-23.486 16.611-.203 0-.844-.751-1.425-1.67h0z" stroke="#000000" stroke-width=".613"/><path d="M60.118 125.274c-6.026-3.108-12.415-7.222-19.495-12.553-4.193-3.157-8.73-7.027-8.745-7.457-.004-.125 7.227-5.439 16.07-11.809l16.078-11.582 16.26 11.716 16.259 11.716-1.818 1.562c-7.838 6.734-16.226 12.7-23.297 16.574-3.74 2.048-6.983 3.633-7.435 3.633-.213 0-1.957-.81-3.877-1.8h0z" stroke="#000000" stroke-width=".613"/></g></g></svg>
